X:383
T: Was ntzt mich das Grasen (4-82), S. 105
N: P0653
O: Lothringen
S: PINCK, Louis: Verklingende Weisen Bd 4, Kassel 1939]
R: Liebe, Enttuschung]
M: 3/8
L: 1/32
K: G
D4 | B4A4G4 | B4A4
G3G | G4F4G4 | A8
A4 | c4B4A4 | c4B4
A4 | A4G4F4 | G8
D4 | G8B4 | G8B4 | B4A4G4 | A4A4
D4 | A8c4 | A8c4 | d4d4c4 | B8
D4 | G8B4 | G8B4 | B4A4G4 | A4A4
D4 | A8c4 | A8c4 | d4d4c4 | B8

@@@ Tune index: 7933
